src/icons/swiper-btn.svg

<svg width="30" height="30" viewBox="0 0 30 30" fill="none" xmlns="http://www.w3.org/2000/svg">
<path fill-rule="evenodd" clip-rule="evenodd" d="M30 0H0V30H30V0ZM12.2929 18.2929L11.5858 19L13 20.4142L13.7071 19.7071L17.7071 15.7071L18.4142 15L17.7071 14.2929L13.7071 10.2929L13 9.58579L11.5858 11L12.2929 11.7071L15.5858 15L12.2929 18.2929Z" fill="white"/>
</svg>

<svg width="30" height="30" fill="none" xmlns="http://www.w3.org/2000/svg"><path fill-rule="evenodd" clip-rule="evenodd" d="M30 0H0v30h30V0zM12.293 18.293l-.707.707L13 20.414l.707-.707 4-4 .707-.707-.707-.707-4-4L13 9.586 11.586 11l.707.707L15.586 15l-3.293 3.293z" fill="#fff"/></svg>
